X:179
T:Mary of the grove
R:Reel
O:Ireland
B:Music from Ireland Vol. 3 n15
B:Roche 1 n190
S:Roche 1 n190
Z:Transcription, minor arr., chords:Mike Long
M:C|
L:1/8
K:G
dc[|\
"Em"B2GB EBGB|"D"~A2FA DAFA|"Em"~B2GB EBGB|"D"BcAF "Em"GEE2|\
"Em"B2GB EBGB|
"D"~A2FA DAFA|"Em"~B2GB EBGB|"Bm"FBAF "Em"GEE2|]\
"Em"gfef gfed|"D"BdAG FAD2|
"Em"gfef gfed|"G"Bdef "A"gee2|\
"Em"gfef gfed|"D"BdAG FGAF|"Em"~E2EF {A}"G"GFGA|"A"Bdef gfed|]
